img/pattern.svg

<svg width="1920" height="770" fill="none" xmlns="http://www.w3.org/2000/svg"><path d="M1753 846c0 145.251-117.75 263-263 263s-263-117.749-263-263 117.75-263 263-263h263v263ZM336-69c0-145.251 117.749-263 263-263S862-214.251 862-69c0 145.25-117.749 263-263 263H336V-69Z" fill="#fff" fill-opacity=".05"/><path d="M336 972h-550V544c0-193.3 156.7-350 350-350h200v778ZM1753 320c0-145.251 117.75-263 263-263s263 117.749 263 263-117.75 263-263 263h-263V320Z" fill="#fff" fill-opacity=".02"/></svg>

<svg width="1920" height="770" viewBox="0 0 1920 770" fill="none" xmlns="http://www.w3.org/2000/svg">
<path d="M1753 846C1753 991.251 1635.25 1109 1490 1109C1344.75 1109 1227 991.251 1227 846C1227 700.749 1344.75 583 1490 583H1753V846Z" fill="white" fill-opacity="0.05"/>
<path d="M336 -69C336 -214.251 453.749 -332 599 -332C744.251 -332 862 -214.251 862 -69C862 76.2509 744.251 194 599 194H336V-69Z" fill="white" fill-opacity="0.05"/>
<path d="M336 972L-214 972L-214 544C-214 350.7 -57.2997 194 136 194H336L336 972Z" fill="white" fill-opacity="0.02"/>
<path d="M1753 320C1753 174.749 1870.75 57 2016 57C2161.25 57 2279 174.749 2279 320C2279 465.251 2161.25 583 2016 583H1753V320Z" fill="white" fill-opacity="0.02"/>
</svg>
